X:1
T:Title
L:1/8
Q:1/4=90
M:6/8
K:F
V:1 treble nm="Church Organ, Staff"
V:1
 A A2 B c2 | d c2 B A2 | GAG F G2 | A A2- A A2 | A A2 B c2 | d c2 B A2 | AAG F G2 | _A =A2- A A2 | %8
w: By~Lesneven * * *||||||||
 A A2 AAG | A B2 B A2 | A c2 c B2 | A G2- G G2 | F A2 B c2 | d c2 c F2 | B A2 AGA | G F2- F F2 |] %16
w: ||||||||

